X: 126
T: Those Are Not My Interest
C: Teton Sioux band 1911-1914
N: Derived from sioux125b.krn
O: South Dakota, U.S.A.
N: Teton Sioux Music by Frances Densmore, 1918
Z: transcribed to **kern format by Craig Sapp
L: 1/8
M: 3/4
Q: 1/4=58
K: Bb clef=bass
%%linebreak <none>
G, G, [I:setbarnb 1]| 
D2D2C D/ C/ ||  
[M:2/4]B, B, C B, | 
B,2G, G, | 
G,2D/ B,/ D/ B,/ ||  
[M:5/8]B, B, D B, G, | 
F, F, F, D, D, | 
F, F, B, G, G, ||  
[M:2/4]F, F,F,2 | 
D, D,D,2 | 
B,,4- | 
B,,4- ||  
[M:3/4]B,,4G, G, | 
D2D2C D | 
B, B,B,4 ||  
[M:2/4]G, G,G,2 | 
(D/ C/) (D/ C/) B, B, ||  
[M:3/8]D B, G, ||  
[M:5/8]F, F, F, D, D, ||  
[M:2/4]F, F, B,/ G,3/ | 
G, F, F, D, | 
D,> D,B,,2 | 
B,,4 | 
B,,4 |]  



